!!!OTL: "Gute Lehre" ES WAREN DER SCHWESTER A DREI
!!!ARE: Europa, Mitteleuropa, Deutschland, Schwaben
!!!SCT: Z1083
!!!YEM: Copyright 1995, estate of Helmut Schaffrath.
**kern
*ICvox
*Ivox
*M6/8
*k[b-e-]
*g:
{8dd
=1
8.b-
16a
8g
8.a
16g
8f#
=2
[4.g
4g]}
{8a
=3
8b-
8b-
8b-
8cc
8cc
8cc
=4
[4.dd
4dd]}
{8dd
=5
4dd
8ffn
4ffn
8dd
=6
4dd
8cc
4cc
8r}
=7
{8b-
8b-
8b-
8.a
16g
8f#
=8
4dd
8dd
4dd}
{8cc
=9
8.b-
16a
8g
4a
8f#
=10
4g
4.r}
==
!!!AGN: Romanze, Ballade
!!!ONB: ESAC (Essen Associative Code) Database: ZUCCAL
!!!AMT: compound duple
!!!AIN: vox
!!!EED: Helmut Schaffrath
!!!EEV: 1.0
*-
